!!!COM: Mozart, Wolfgang Amadeus
!!!OTL: String Quartet No. 14 in G Major ("Spring")
!!!OMD: Molto allegro
!!!OMV: 4
!!!SCT1: K<sup>1</sup> 387
!!!SCA: Chronologisch-thematisches Verzeichnis sämtlicher Tonwerke Wolfgang Amade Mozarts (L. von Köchel; 1862, 2/1905, 3/1937, 1947)
!!!SCT2: K<sup>6</sup> 387
!!!YOR: Breitkopf & Härtel Edition
!!!ENC: Frances Bennion
!!!CDT: 1756/1/27/-1791/12/5/
!!!OCY: Österreich
!!!YEC: Copyright (c) 1994, 2000 Center for Computer Assisted Research in the Humanities
!!!YEM: Rights to all derivative editions reserved.
!!!YEM: Refer to licensing agreement for further details.
!!!YEN: United States of America
**kern	**kern	**kern	**kern
*k[f#]	*k[f#]	*k[f#]	*k[f#]
*G:	*G:	*G:	*G:
*clefC	*clefF	*clefG	*clefG
*M4/4	*M4/4	*M4/4	*M4/4
1r	1r	1g	1r
=2	=2	=2	=2
1r	1r	1b	1r
=3	=3	=3	=3
1r	1r	1ee	1r
=4	=4	=4	=4
1r	1r	1cc#	1r
=5	=5	=5	=5
1r	1r	2dd	1dd
.	.	4r	.
.	.	[4dd	.
=6	=6	=6	=6
1r	1r	4dd]	1ee
.	.	4cc	.
.	.	4r	.
.	.	[4b	.
=7	=7	=7	=7
1r	1r	4b]	1aa
.	.	4a	.
.	.	4r	.
.	.	[4ee	.
=8	=8	=8	=8
1r	1r	4ee]	1ff#
.	.	4dd	.
.	.	4r	.
.	.	[4cc	.
=9	=9	=9	=9
1G	1r	4cc]	2gg
.	.	4b	.
.	.	[2dd	4r
.	.	.	[4gg
=10	=10	=10	=10
1B	1r	4dd]	4gg]
.	.	4d	4ff#
.	.	[2a	4r
.	.	.	[4ff#
=11	=11	=11	=11
1e	1r	4a]	4ff#]
.	.	4g	4ee
.	.	[2gg	4r
.	.	.	[4bb
=12	=12	=12	=12
1c#	1r	4gg]	4bb]
.	.	4a	4aa
.	.	[2ee	4r
.	.	.	[4gg
=13	=13	=13	=13
2d	1d	4ee]	4gg]
.	.	4dd	4ff#
4r	.	4ff#	[2aa
[4d	.	4f#	.
=14	=14	=14	=14
4d]	1e	4r	4aa]
4c	.	4e	4a
4r	.	4f#	[2dd
[4B	.	4g#	.
=15	=15	=15	=15
4B]	1a	4r	4dd]
4A	.	4e	4cc
4r	.	4a	[2ccc
[4e	.	4g	.
=16	=16	=16	=16
4e]	1f#	4r	4ccc]
4d	.	4a	4dd
4r	.	4cc	[2aa
[4c	.	4d	.
=17	=17	=17	=17
4c]	2g	2d	4aa]
4B	.	.	4gg
2r	2r	2r	8gg
.	.	.	8ff#
.	.	.	8ee
.	.	.	8dd
=18	=18	=18	=18
2r	2r	2r	8cc
.	.	.	8b
.	.	.	8a
.	.	.	8g
4D	4d 4c	4a 4f#	8f#
.	.	.	8a
4r	4r	4r	8dd
.	.	.	8cc
=19	=19	=19	=19
4G	4d 4B	4b 4g	8b
.	.	.	8dd
2.r	2.r	2.r	8gg
.	.	.	8ff#
.	.	.	8gg
.	.	.	8ff#
.	.	.	8ee
.	.	.	8dd
=20	=20	=20	=20
2r	2r	2r	8cc
.	.	.	8b
.	.	.	8a
.	.	.	8g
4D	4d 4c	4a 4f#	8f#
.	.	.	8a
4r	4r	4r	8dd
.	.	.	8cc
=21	=21	=21	=21
4G	4d 4B	4b 4g	8b
.	.	.	8dd
4r	4r	4r	8gg
.	.	.	8ff#
4E	4B	4g	8gg
.	.	.	8ff#
4r	4r	4r	8ee
.	.	.	8dd
=22	=22	=22	=22
4C	4A	4g	8ee
.	.	.	8dd
4r	4r	4r	8cc
.	.	.	8b
4D	4c	4f#	4a
4r	4r	4r	4dd
=23	=23	=23	=23
4GG	4B	4g	4g
2.r	2.r	4r	2.r
.	.	8gg	.
.	.	8ff#	.
.	.	8ee	.
.	.	8dd	.
=24	=24	=24	=24
2r	2r	8cc	2r
.	.	8b	.
.	.	8a	.
.	.	8g	.
4D	4d 4c	8f#	4a 4f#
.	.	8a	.
4r	4r	8dd	4r
.	.	8cc	.
=25	=25	=25	=25
4G	4d 4B	8b	4b 4g
.	.	8dd	.
2.r	2.r	8gg	2.r
.	.	8ff#	.
.	.	8gg	.
.	.	8ff#	.
.	.	8ee	.
.	.	8dd	.
=26	=26	=26	=26
2r	2r	8cc	2r
.	.	8b	.
.	.	8a	.
.	.	8g	.
4D	4d 4c	8f#	4a 4f#
.	.	8a	.
4r	4r	8dd	4r
.	.	8cc	.
=27	=27	=27	=27
4G	4d 4B	8b	4b 4g
.	.	8dd	.
4r	4r	8gg	4r
.	.	8ff#	.
4E	4B	8gg	4g
.	.	8ff#	.
4r	4r	8ee	4r
.	.	8dd	.
=28	=28	=28	=28
4C	4A	8ee	4g
.	.	8dd	.
4r	4r	8cc	4r
.	.	8b	.
4D	4c	4a	4f#
4r	4r	4dd	4r
=29	=29	=29	=29
4G	4B	4g	4g
4r	4r	4r	2.r
4E	8g	4g 4B	.
.	8f#	.	.
4r	8e	4r	.
.	8d	.	.
=30	=30	=30	=30
4C	8e	4g 4A	1r
.	8d	.	.
4r	8c	4r	.
.	8B	.	.
4D	4A	4f# 4c	.
4r	4d	4r	.
=31	=31	=31	=31
4GG	4G	4g 4B	2.g
4r	2.r	2.r	.
8G	.	.	.
8F#	.	.	.
8E	.	.	[4g
8D	.	.	.
=32	=32	=32	=32
8E	4B	2r	4g]
8D	.	.	.
8C	8A	.	2g
8BB	8B	.	.
4AA	4c	[2a	.
4D	8d	.	4f#
.	8c	.	.
=33	=33	=33	=33
2GG	4B	4a]	2.b
.	4d	4a	.
8B	2g	4d	.
8A	.	.	.
8G	.	4g	[4b
8F#	.	.	.
=34	=34	=34	=34
8G	4d	2r	4b]
8F#	.	.	.
8E	8c#	.	2b
8D	8d	.	.
4C#	4e	[2cc#	.
4F#	8f#	.	4a#
.	8e	.	.
=35	=35	=35	=35
2BB	4d	4cc#]	2.dd
.	4f#	4cc#	.
8d	2b	4f#	.
8c#	.	.	.
8B	.	4b	[4dd
8A	.	.	.
=36	=36	=36	=36
8B	4f#	2r	4dd]
8A	.	.	.
8G	8e	.	2dd
8F#	8f#	.	.
4E	4g	[2ee	.
4A	8a	.	4cc#
.	8g	.	.
=37	=37	=37	=37
8D	4f#	4ee]	[1ff#
8E	.	.	.
8F#	4a	4ee	.
8G	.	.	.
8A	[2dd	4dd	.
8B	.	.	.
8c#	.	4cc#	.
8d	.	.	.
=38	=38	=38	=38
2G	2dd]	2b	4ff#]
.	.	.	2ee
2G#	2b	2e	.
.	.	.	4dd
=39	=39	=39	=39
2A	8a	4e	4cc#
.	8a	.	.
.	8a	2r	2r
.	8a	.	.
2r	8a	.	.
.	8a	.	.
.	8a	4ff#	4aa
.	8a	.	.
=40	=40	=40	=40
1r	8a	4ee#	4gg#
.	8a	.	.
.	8a	4ee#	4gg#
.	8a	.	.
.	8a	4ee	4gg
.	8a	.	.
.	8a	4ee	4gg
.	8a	.	.
=41	=41	=41	=41
1r	8a	4dd#	4ff#
.	8a	.	.
.	8a	4dd#	4ff#
.	8a	.	.
.	8a	4dd	4ff
.	8a	.	.
.	8a	4dd	4ff
.	8a	.	.
=42	=42	=42	=42
4r	8a	4cc#	4ee
.	8a	.	.
4d	8a	4dd	4ff 4a
.	8a	.	.
4A	8a	4cc#	4ee 4a
.	8a	.	.
4d	8a	4dd	4ff 4a
.	8a	.	.
=43	=43	=43	=43
2A	8a	4cc#	4ee 4a
.	8a	.	.
.	8a	2r	2r
.	8a	.	.
2r	8a	.	.
.	8a	.	.
.	8a	4ff#	4aa
.	8a	.	.
=44	=44	=44	=44
1r	8a	4ee#	4gg#
.	8a	.	.
.	8a	4ee#	4gg#
.	8a	.	.
.	8a	4ee	4gg
.	8a	.	.
.	8a	4ee	4gg
.	8a	.	.
=45	=45	=45	=45
1r	8a	4dd#	4ff#
.	8a	.	.
.	8a	4dd#	4ff#
.	8a	.	.
.	8a	4dd	4ff
.	8a	.	.
.	8a	4dd	4ff
.	8a	.	.
=46	=46	=46	=46
4r	8a	4cc#	4ee
.	8a	.	.
4D	8a	4dd	4ff 4a
.	8a	.	.
4AA	8a	4cc#	4ee 4a
.	8a	.	.
4D	8a	4dd	4ff 4a
.	8a	.	.
=47	=47	=47	=47
4AA	8a	4cc#	4ee 4a
.	8a	.	.
2.r	8b-	2.r	4gg#
.	8b-	.	.
.	8a	.	4aa
.	8a	.	.
.	8b-	.	4gg#
.	8b-	.	.
=48	=48	=48	=48
4r	8a	4r	4aa
.	8a	.	.
4d	8g#	4dd	4ff
.	8g#	.	.
4A	8a	4cc#	4ee
.	8a	.	.
4d	8g#	4dd	4ff
.	8g#	.	.
=49	=49	=49	=49
4A	8a	4cc#	4ee
.	8a	.	.
2.r	8b-	2.r	4gg#
.	8b-	.	.
.	8a	.	4aa
.	8a	.	.
.	8b-	.	4gg#
.	8b-	.	.
=50	=50	=50	=50
4r	8a	4r	4aa
.	8a	.	.
4D	8g#	4dd	4ff
.	8g#	.	.
4AA	8a	4cc#	4ee
.	8a	.	.
4D	8g#	4dd	4ff
.	8g#	.	.
=51	=51	=51	=51
2AA	2a	2cc#	2ee
[2A	2r	2r	2r
=52	=52	=52	=52
4A]	1r	1r	1r
4D	.	.	.
[2G	.	.	.
=53	=53	=53	=53
4G]	1r	1r	1r
4A	.	.	.
[2B	.	.	.
=54	=54	=54	=54
4B]	1r	1r	1r
4E	.	.	.
4A	.	.	.
4G	.	.	.
=55	=55	=55	=55
4F#	2r	1r	1r
4G	.	.	.
4F#	[2d	.	.
4E	.	.	.
=56	=56	=56	=56
4D	4d]	1r	1r
4E	4A	.	.
4D	[2d	.	.
4C#	.	.	.
=57	=57	=57	=57
4BB	4d]	1r	1r
4C#	4e	.	.
4BB	[2f#	.	.
4AA	.	.	.
=58	=58	=58	=58
1GG#	4f#]	1r	1r
.	4B	.	.
.	4e	.	.
.	4d	.	.
=59	=59	=59	=59
4AA	4c#	2r	1r
4E	4d	.	.
4A	4B	[2a	.
4G	4c#	.	.
=60	=60	=60	=60
4F#	4d	4a]	1r
4G	4B	4d	.
4E	4c#	[2g	.
4F#	4d	.	.
=61	=61	=61	=61
4G	4e	4g]	1r
4F#	4d	4a	.
4E	4g	[2b	.
4D	4f#	.	.
=62	=62	=62	=62
4C#	4e	4b]	1r
4BB	4d	4e	.
4AA	4c#	4a	.
4C#	4e	4g	.
=63	=63	=63	=63
2D	4d	4f#	2r
.	4e	4g	.
2r	4f#	4a	[2dd
.	4e	4g	.
=64	=64	=64	=64
1r	4d	4f#	4dd]
.	4e	4g	4a
.	4d	4f#	[2dd
.	4c#	4e	.
=65	=65	=65	=65
1r	4B	4d	4dd]
.	4A	4c#	4ee
.	4G#	4B	[2ff#
.	4F#	4A	.
=66	=66	=66	=66
1r	[1E	2G#	4ff#]
.	.	.	4b
.	.	[2G	4ee
.	.	.	4dd
=67	=67	=67	=67
1r	4E]	4G]	2cc#
.	8e	8g	.
.	8d	8f#	.
.	4e	4g	[2bb
.	4d	4f#	.
=68	=68	=68	=68
1r	1c#	1e	4bb]
.	.	.	4ee
.	.	.	4aa
.	.	.	4gg
=69	=69	=69	=69
1D	2d	2d	2ff#
.	2f#	[2dd	2r
=70	=70	=70	=70
1F#	2.a	4dd]	1r
.	.	4a	.
.	.	[2dd	.
.	4g	.	.
=71	=71	=71	=71
1B	4f#	4dd]	1r
.	4e	4ee	.
.	4d	[2ff#	.
.	4c#	.	.
=72	=72	=72	=72
1G#	2B	4ff#]	1r
.	.	4b	.
.	2b	4ee	.
.	.	4dd	.
=73	=73	=73	=73
[1A	2e	2cc#	1a
.	[2a	2c#	.
=74	=74	=74	=74
1A_	4a]	4d	1b
.	4d	2dd	.
.	[2g	.	.
.	.	4cc#	.
=75	=75	=75	=75
1A_	4g]	4b	1ee
.	4a	4a	.
.	[2b	4g	.
.	.	4f#	.
=76	=76	=76	=76
1A]	4b]	4e	1cc#
.	4e	4g	.
.	4a	4f#	.
.	4g	4e	.
=77	=77	=77	=77
4D	2f#	2d	2dd
4AA	.	.	.
[2D	2d	2r	2f#
=78	=78	=78	=78
4D]	1f#	1r	2.a
4AA	.	.	.
[2D	.	.	.
.	.	.	4g
=79	=79	=79	=79
4D]	1b	1r	4f#
4E	.	.	4e
[2F#	.	.	4d
.	.	.	4c#
=80	=80	=80	=80
4F#]	1g#	1r	2B
4BB	.	.	.
4E	.	.	2b
4D#	.	.	.
=81	=81	=81	=81
1C#	2a	1a	2e
.	2e	.	[2aa
=82	=82	=82	=82
1BB	4d	1b	4aa]
.	4f#	.	4dd
.	4e	.	[2gg
.	4d	.	.
=83	=83	=83	=83
[1AA	2.c#	1ee	4gg]
.	.	.	4aa
.	.	.	[2bb
.	4d	.	.
=84	=84	=84	=84
2AA]	4e	[1cc#	4bb]
.	4g	.	4ee
2A	4f#	.	4aa
.	[4e	.	4gg
=85	=85	=85	=85
4A#	2e]	4cc#]	[1ff#
4c	.	4a#	.
4B	4d	4b	.
4A	4d#	4cc	.
=86	=86	=86	=86
[1G	[1e	1b	4ff#]
.	.	.	4b
.	.	.	4ee
.	.	.	4dd
=87	=87	=87	=87
2G]	2e]	2b-	2.cc#
2F#	2A	2a	.
.	.	.	4dd
=88	=88	=88	=88
2E	1B-	2c#	[1g
2D	.	2d	.
=89	=89	=89	=89
2C#	1A	2e	2g]
2D	.	[2d	2f#
=90	=90	=90	=90
2GG	2B	2d]	1e
2AA	4A	2c#	.
.	4G	.	.
=91	=91	=91	=91
4DD	4F#	4d	4d
2.r	4F#	4A	2.r
.	4F#	4A	.
.	4F#	4A	.
=92	=92	=92	=92
4D	4F#	4A	2aa
2.r	4F#	4A	.
.	4F#	4A	4.ff#
.	4F#	4A	.
.	.	.	8ddd
=93	=93	=93	=93
4D	4F#	4A	2ddd
2.r	4F#	4A	.
.	4F#	4A	[2aa
.	4F#	4A	.
=94	=94	=94	=94
4AA	4E	4c#	2aa]
2.r	4E	4c#	.
.	4E	4c#	4gg
.	4G	4c#	4ee
=95	=95	=95	=95
4DD	4G	4c#	4.ee
2.r	4F#	4d	.
.	.	.	8ff#
.	4A	4f#	2dd
.	4A	4f#	.
=96	=96	=96	=96
4D	4F#	4A	2aa
2.r	4F#	4A	.
.	4F#	4A	4.ff#
.	4F#	4A	.
.	.	.	8ddd
=97	=97	=97	=97
4D	4F#	4A	2ddd
2.r	4F#	4A	.
.	4F#	4A	[2aa
.	4F#	4A	.
=98	=98	=98	=98
4AA	4E	4c#	2aa]
2.r	4E	4c#	.
.	4E	4c#	4gg
.	4G	4c#	4ee
=99	=99	=99	=99
4DD	4F#	4d	8dd
.	.	.	8a
2.r	2.r	2.r	8b
.	.	.	8cc#
.	.	.	8dd
.	.	.	8ee
.	.	.	8ff#
.	.	.	8gg
=100	=100	=100	=100
[1D	4D	8f#	4aa
.	.	8a	.
.	4F#	8d	4aa
.	.	8a	.
.	4A	8f#	4ff#
.	.	8a	.
.	4F#	8d	4ddd
.	.	8a	.
=101	=101	=101	=101
1D]	4D	8f#	4ddd
.	.	8a	.
.	4F#	8d	4ddd
.	.	8a	.
.	4A	8f#	[2aa
.	.	8a	.
.	4F#	8d	.
.	.	8a	.
=102	=102	=102	=102
1AA	4C#	8g	4aa]
.	.	8a	.
.	4E	8e	4aa
.	.	8a	.
.	4A	8g	4gg
.	.	8a	.
.	4C#	8e	4ee
.	.	8a	.
=103	=103	=103	=103
1DD	4D	8f#	4ee
.	.	8a	.
.	4F#	8d	4ff#
.	.	8a	.
.	4A	8f#	2dd
.	.	8a	.
.	4F#	8d	.
.	.	8a	.
=104	=104	=104	=104
[1D	4D	8f#	8gg#
.	.	8a	8aa
.	4F#	8d	8gg#
.	.	8a	8aa
.	4A	8f#	4ff#
.	.	8a	.
.	4F#	8d	4ddd
.	.	8a	.
=105	=105	=105	=105
1D]	4D	8f#	8ccc#
.	.	8a	8ddd
.	4F#	8d	8ccc#
.	.	8a	8ddd
.	4A	8f#	4aa
.	.	8a	.
.	4F#	8d	4r
.	.	8a	.
=106	=106	=106	=106
1AA	4C#	8e	8gg#
.	.	8a	8aa
.	4E	8c#	8gg#
.	.	8a	8aa
.	4A	8e	4gg
.	.	8a	.
.	4G	8c#	4ee
.	.	8a	.
=107	=107	=107	=107
4D	8F#	8d	4dd
.	8d	8f#	.
8E	8e	8g	2.r
8F#	8f#	8a	.
8G	8g	8b	.
8A	8a	8cc#	.
8B	8b	8dd	.
8c#	8cc#	8ee	.
=108	=108	=108	=108
4d	4dd	4ff#	4ff#
4d	4dd	4ff#	4ff#
4c#	4a	4ee	4aa
4c#	4a	4ee	4aa
=109	=109	=109	=109
2.B	2.f#	2.dd	2.ddd
4F#	4a	4dd	4dd
=110	=110	=110	=110
4A	4a	4dd	4ee
4A	4a	4dd	4ee
4A	4a	4cc#	4aa
4A	4a	4cc#	4aa
=111	=111	=111	=111
4D	8a	8dd	2ff#
.	8d	8f#	.
8E	8e	8g	.
8F#	8f#	8a	.
8G	8g	8b	2r
8A	8a	8cc#	.
8B	8b	8dd	.
8c#	8cc#	8ee	.
=112	=112	=112	=112
4d	4dd	4ff#	4ff#
4d	4dd	4ff#	4ff#
4c#	4a	4ee	4aa
4c#	4a	4ee	4aa
=113	=113	=113	=113
2.B	2.f#	2.dd	2.ddd
4F#	4a	4dd	4dd
=114	=114	=114	=114
4A	4a	4dd	4ee
4A	4a	4dd	4ee
4A	4g	4cc#	4aa
4A	4g	4cc#	4aa
=115	=115	=115	=115
2B	2f#	[1dd	2dd
2F#	2a	.	4r
.	.	.	4dd
=116	=116	=116	=116
2G	2b	2dd]	4ee
.	.	.	4ee
2A	4a	2cc#	4aa
.	4g	.	4aa
=117	=117	=117	=117
4B	4f#	4dd	4dd
4r	4r	4r	2r
4FF#	4A	4d	.
4r	4r	4r	4d
=118	=118	=118	=118
4GG	4B	4d	4e
4r	4r	4r	4e
4AA	4G	4c#	4a
4r	4r	4r	4a
=119	=119	=119	=119
4DD	4F#	4d	4d
2.r	2.r	2.r	2r
.	.	.	4d
=120	=120	=120	=120
1r	1r	1r	4f#
.	.	.	4f#
.	.	.	4a
.	.	.	4a
=121	=121	=121	=121
[1d	[1a [1f#	[1cc	4cc
.	.	.	2r
.	.	.	4dd
=122	=122	=122	=122
1d_	1a_ 1f#_	1cc_	4ff#
.	.	.	2r
.	.	.	4aa
=123	=123	=123	=123
4d]	4a] 4f#]	4cc]	4ccc
2.r	2.r	2r	2.r
.	.	4d	.
=124	=124	=124	=124
1r	1r	4e-	1r
.	.	4e	.
.	.	4f	.
.	.	4f#	.
=125	=125	=125	=125
1r	2.r	[1g	1r
.	4b	.	.
=126	=126	=126	=126
1r	4cc	1g_	1r
.	4cc#	.	.
.	4dd	.	.
.	4dd#	.	.
=127	=127	=127	=127
1r	[1ee	1g_	2.r
.	.	.	4ff#
=128	=128	=128	=128
1r	1ee_	1g]	4gg
.	.	.	4gg#
.	.	.	4aa
.	.	.	4aa#
=129	=129	=129	=129
2.r	1ee]	[1f#	[1bb
4C#	.	.	.
=130	=130	=130	=130
4D	2dd	2f#]	1bb_
4D#	.	.	.
4E	2r	2dd	.
4E#	.	.	.
=131	=131	=131	=131
2F#	2.r	1cc#	1bb]
2r	.	.	.
.	4G#	.	.
=132	=132	=132	=132
1r	4A	[1ff#	1aa
.	4A#	.	.
.	4B	.	.
.	4B#	.	.
=133	=133	=133	=133
2.r	2c#	1ff#]	1gg#
.	2r	.	.
4E-	.	.	.
=134	=134	=134	=134
4E	1r	1ee	[1ccc#
4F	.	.	.
4G-	.	.	.
4G	.	.	.
=135	=135	=135	=135
2A-	2.r	1dd#	1ccc#]
2r	.	.	.
.	4B-	.	.
=136	=136	=136	=136
1r	4c-	[1gg#	1bb
.	4c	.	.
.	4d-	.	.
.	4d	.	.
=137	=137	=137	=137
2.r	2e-	1gg#]	1bb-
.	2r	.	.
4F	.	.	.
=138	=138	=138	=138
4G-	1r	1ff#	[1eee-
4G	.	.	.
4A-	.	.	.
4A	.	.	.
=139	=139	=139	=139
2B-	2.r	1ff	1eee-]
2r	.	.	.
.	4c	.	.
=140	=140	=140	=140
1r	4d-	1bb-	1ddd-
.	4d	.	.
.	4e-	.	.
.	4e	.	.
=141	=141	=141	=141
4F	4f	4aa	4ccc
4F	4e	4bb-	4ddd-
4F	4f	4aa	4ccc
4F	4e	4bb-	4ddd-
=142	=142	=142	=142
4F	4f	4aa	4ccc
2.r	2.r	2.r	2.r
=143	=143	=143	=143
1r	1r	1r	1B-
=144	=144	=144	=144
1r	1r	1r	1d-
=145	=145	=145	=145
1r	4r	4r	1g-
.	4b-	4dd-	.
.	4b-	4dd-	.
.	4b-	4dd-	.
=146	=146	=146	=146
1r	4b-	4dd-	1e
.	4b-	4dd-	.
.	4b-	4dd-	.
.	4b-	4dd-	.
=147	=147	=147	=147
1FF	4b-	4dd-	2f
.	4a-	4cc	.
.	2a-	2cc	2r
=148	=148	=148	=148
1AA-	1r	1r	1r
=149	=149	=149	=149
1D-	4r	4r	1r
.	4a-	4ff	.
.	4a-	4ff	.
.	4a-	4ff	.
=150	=150	=150	=150
1BB	4a-	4ff	1r
.	4a-	4ff	.
.	4a-	4ff	.
.	4a-	4ff	.
=151	=151	=151	=151
2C	4a-	4ff	1cc
.	4g	4ee-	.
2r	2g	2ee-	.
=152	=152	=152	=152
1r	1r	1r	1ee-
=153	=153	=153	=153
1r	4r	4r	1aa-
.	4c	4e-	.
.	4c	4e-	.
.	4c	4e-	.
=154	=154	=154	=154
1r	4c	4e-	1ff#
.	4c	4e-	.
.	4c	4e-	.
.	4c	4e-	.
=155	=155	=155	=155
1GG	4c	4e-	2gg
.	4B-	4d	.
.	2B-	2d	2r
=156	=156	=156	=156
1BB-	1r	1r	1r
=157	=157	=157	=157
1E-	4r	4r	1r
.	4g	4b-	.
.	4g	4b-	.
.	4g	4b-	.
=158	=158	=158	=158
1C#	4g	4b-	1r
.	4g	4b-	.
.	4g	4b-	.
.	4g	4b-	.
=159	=159	=159	=159
[1D	4g	4b-	4r
.	4f#	4a	4cc
.	[2f#	[2a	4cc
.	.	.	4cc
=160	=160	=160	=160
1D]	1f#]	1a]	4cc
.	.	.	4cc
.	.	.	4cc
.	.	.	4cc
=161	=161	=161	=161
[1GG	4r	4r	4cc
.	4f	4a-	4b
.	4f	4a-	[2b
.	4f	4a-	.
=162	=162	=162	=162
1GG]	4f	4a-	1b]
.	4f	4a-	.
.	4f	4a-	.
.	4f	4a-	.
=163	=163	=163	=163
[1C	4f	4a-	4r
.	4e	4g	4b-
.	[2e	[2g	4bb-
.	.	.	4bb-
=164	=164	=164	=164
1C]	1e]	1g]	4bb-
.	.	.	4bb-
.	.	.	4bb-
.	.	.	4bb-
=165	=165	=165	=165
[1FF	4r	4r	4bb-
.	4c	4d#	4aa
.	4cc	4dd#	[2aa
.	4cc	4dd#	.
=166	=166	=166	=166
1FF]	4cc	4dd#	2.aa]
.	4cc	4dd#	.
.	4cc	4dd#	.
.	4cc	4dd#	4aa
=167	=167	=167	=167
4r	4cc	4dd#	4aa
4E	4b	4dd	4gg#
4e	4b	4dd	[2gg#
4e	4b	4dd	.
=168	=168	=168	=168
4e	4b	4dd	4gg#]
4e	4a#	4cc#	4gg
4e	4a#	4cc#	[2gg
4e	4a#	4cc#	.
=169	=169	=169	=169
4e	4a#	4cc#	4gg]
4d#	4a	4cc	4ff#
4d#	4a	4cc	4ff#
4d#	4a	4cc	4ff#
=170	=170	=170	=170
4d#	4a	4cc	4ff#
4d	4a-	4b	4ff
4d	4a-	4b	4ff
4d	4a-	4b	4ff
=171	=171	=171	=171
2d	1a-	2b	[1ff
2c	.	2cc	.
=172	=172	=172	=172
2B	2g	2dd	1ff_
2A	2c	2cc	.
=173	=173	=173	=173
4G	4d	4b	4ff]
2.r	2.r	2.r	2.r
=174	=174	=174	=174
1r	1r	1r	1r
=175	=175	=175	=175
4c	4g	4cc 4e	2r
2.r	2.r	2.r	.
.	.	.	8ccc
.	.	.	8bb
.	.	.	8aa
.	.	.	8gg
=176	=176	=176	=176
2r	2r	2r	8ff
.	.	.	8ee
.	.	.	8dd
.	.	.	8cc
4G	4b 4g	4dd 4f	8b
.	.	.	8dd
4r	4r	4r	8gg
.	.	.	8ff
=177	=177	=177	=177
4c	4cc 4g	4cc 4e	8ee
.	.	.	8gg
2.r	2.r	2.r	8ccc
.	.	.	8bb
.	.	.	8ccc
.	.	.	8bb
.	.	.	8aa
.	.	.	8gg
=178	=178	=178	=178
2r	2r	2r	8ff
.	.	.	8ee
.	.	.	8dd
.	.	.	8cc
4G	4b 4g	4dd 4f	8b
.	.	.	8dd
4r	4r	4r	8gg
.	.	.	8ff
=179	=179	=179	=179
4c	4cc 4g	4cc 4e	8ee
.	.	.	8gg
4r	4r	4r	8ccc
.	.	.	8bb
4A	4a	4cc 4e	8ccc
.	.	.	8bb
4r	4r	4r	8aa
.	.	.	8gg
=180	=180	=180	=180
4F	4a	4cc 4d	8aa
.	.	.	8gg
4r	4r	4r	8ff
.	.	.	8ee
4G	4g	4b 4f	4dd
4r	4r	4r	4gg
=181	=181	=181	=181
4C	4g	4cc 4e	4cc
2.r	2.r	4r	2.r
.	.	8cc	.
.	.	8b	.
.	.	8a	.
.	.	8g	.
=182	=182	=182	=182
2r	2r	8f	2r
.	.	8e	.
.	.	8d	.
.	.	8c	.
4GG	4d 4B	8B	4f 4G
.	.	8d	.
4r	4r	8g	4r
.	.	8f	.
=183	=183	=183	=183
4C	4c	8e	4e 4G
.	.	8g	.
2.r	2.r	8cc	2.r
.	.	8b	.
.	.	8cc	.
.	.	8b	.
.	.	8a	.
.	.	8g	.
=184	=184	=184	=184
2r	2r	8f	2r
.	.	8e	.
.	.	8d	.
.	.	8c	.
4GG	4d 4B	8B	4f 4G
.	.	8d	.
4r	4r	8g	4r
.	.	8f	.
=185	=185	=185	=185
4C	4c	8e	4e 4G
.	.	8g	.
4r	4r	8cc	4r
.	.	8b	.
4A	4c	8cc	4e
.	.	8b	.
4r	4r	8a	4r
.	.	8g	.
=186	=186	=186	=186
4F	4c	8a	4d
.	.	8g	.
4r	4r	8f	4r
.	.	8e	.
4G	4B	4d	4f
4r	4r	4g	4r
=187	=187	=187	=187
4C	4c	4c	4e
4r	4r	4r	4r
4AA	8c	4c	4e
.	8B	.	.
4r	8A	4r	4r
.	8G	.	.
=188	=188	=188	=188
4FF	8A	4c	4d
.	8G	.	.
4r	8F	4r	4r
.	8E	.	.
4GG	4D	4B	4d
4r	4G	4r	4r
=189	=189	=189	=189
4CC	4C	4c	2.c
4r	2.r	2.r	.
8C	.	.	.
8BB	.	.	.
8AA	.	.	[4c
8GG	.	.	.
=190	=190	=190	=190
8AA	4E	2r	4c]
8GG	.	.	.
8FF	8D	.	2c
8EE	8E	.	.
4DD	4F	[2d	.
4GG	8G	.	4B
.	8F	.	.
=191	=191	=191	=191
2CC	4E	4d]	2.e
.	4G	4d	.
8E	2c	4G	.
8D	.	.	.
8C	.	4c	[4e
8BB	.	.	.
=192	=192	=192	=192
8C	4G	2r	4e]
8BB	.	.	.
8AA	8F#	.	2e
8GG	8G	.	.
4FF#	4A	[2f#	.
4BB	8B	.	4d#
.	8A	.	.
=193	=193	=193	=193
2EE	4G	4f#]	2.g
.	4B	4f#	.
8G	2e	4B	.
8F#	.	.	.
8E	.	4e	[4g
8D	.	.	.
=194	=194	=194	=194
8E	4B	2r	4g]
8D	.	.	.
8C	8A	.	2g
8BB	8B	.	.
4AA	4c	[2a	.
4D	8d	.	4f#
.	8c	.	.
=195	=195	=195	=195
8GG	4B	4a]	[1b
8AA	.	.	.
8BB	4d	4a	.
8C	.	.	.
8D	[2g	4g	.
8E	.	.	.
8F#	.	4f#	.
8G	.	.	.
=196	=196	=196	=196
2C	2g]	2e	4b]
.	.	.	2a
2C#	2e	[2A	.
.	.	.	4g
=197	=197	=197	=197
2D	8d	4A]	4f#
.	8d	.	.
.	8d	2r	2r
.	8d	.	.
2r	8d	.	.
.	8d	.	.
.	8d	4b	4dd
.	8d	.	.
=198	=198	=198	=198
1r	8d	4a#	4cc#
.	8d	.	.
.	8d	4a#	4cc#
.	8d	.	.
.	8d	4a	4cc
.	8d	.	.
.	8d	4a	4cc
.	8d	.	.
=199	=199	=199	=199
1r	8d	4g#	4b
.	8d	.	.
.	8d	4g#	4b
.	8d	.	.
.	8d	4g	4b-
.	8d	.	.
.	8d	4g	4b-
.	8d	.	.
=200	=200	=200	=200
4r	8d	4f#	4a
.	8d	.	.
4G	8d	4g	4b- 4d
.	8d	.	.
4D	8d	4f#	4a 4d
.	8d	.	.
4G	8d	4g	4b- 4d
.	8d	.	.
=201	=201	=201	=201
2D	8d	4f#	4a 4d
.	8dd	.	.
.	8dd	2r	2r
.	8dd	.	.
2r	8dd	.	.
.	8dd	.	.
.	8dd	4bb	4ddd
.	8dd	.	.
=202	=202	=202	=202
1r	8dd	4aa#	4ccc#
.	8dd	.	.
.	8dd	4aa#	4ccc#
.	8dd	.	.
.	8dd	4aa	4ccc
.	8dd	.	.
.	8dd	4aa	4ccc
.	8dd	.	.
=203	=203	=203	=203
1r	8dd	4gg#	4bb
.	8dd	.	.
.	8dd	4gg#	4bb
.	8dd	.	.
.	8dd	4gg	4bb-
.	8dd	.	.
.	8dd	4gg	4bb-
.	8dd	.	.
=204	=204	=204	=204
4r	8dd	4ff#	4aa
.	8dd	.	.
4G	8dd	4gg	4bb- 4dd
.	8dd	.	.
4D	8dd	4ff#	4aa 4dd
.	8dd	.	.
4G	8dd	4gg	4bb- 4dd
.	8dd	.	.
=205	=205	=205	=205
1r	4dd	4ff#	4aa 4dd
.	8e-	2.r	4cc#
.	8e-	.	.
.	8d	.	4dd
.	8d	.	.
.	8e-	.	4cc#
.	8e-	.	.
=206	=206	=206	=206
4r	8d	4r	4dd
.	8d	.	.
4GG	8c#	4g	4b-
.	8c#	.	.
4DD	8d	4f#	4a
.	8d	.	.
4GG	8c#	4g	4b-
.	8c#	.	.
=207	=207	=207	=207
4DD	4d	4f#	4a
2.r	2.r	8ee-	4ccc#
.	.	8ee-	.
.	.	8dd	4ddd
.	.	8dd	.
.	.	8ee-	4ccc#
.	.	8ee-	.
=208	=208	=208	=208
4r	4r	8dd	4ddd
.	.	8dd	.
4G	8cc#	8gg	4bb-
.	8cc#	8gg	.
4D	8dd	8ff#	4aa
.	8dd	8ff#	.
4G	8cc#	8gg	4bb-
.	8cc#	8gg	.
=209	=209	=209	=209
1D	2dd	2ff#	2aa
.	2r	[2dd	2r
=210	=210	=210	=210
1E	1r	4dd]	1r
.	.	4g	.
.	.	[2cc	.
=211	=211	=211	=211
1A	1r	4cc]	1r
.	.	4dd	.
.	.	[2ee	.
=212	=212	=212	=212
1F#	1r	4ee]	1r
.	.	4a	.
.	.	4dd	.
.	.	4cc	.
=213	=213	=213	=213
4G	1G	4b	2r
4A	.	4cc	.
4B	.	4dd	[2gg
4A	.	4cc	.
=214	=214	=214	=214
4G	1B	4b	4gg]
4A	.	4cc	4dd
4G	.	4b	[2gg
4F#	.	4a	.
=215	=215	=215	=215
4E	1e	2g	4gg]
4D	.	.	4aa
4C#	.	[2gg	[2bb
4BB	.	.	.
=216	=216	=216	=216
1AA	1c#	2gg]	4bb]
.	.	.	4ee
.	.	4ff#	4aa
.	.	4ee	4gg
=217	=217	=217	=217
[1D	2d	1dd	2ff#
.	[2dd	.	2f#
=218	=218	=218	=218
1D_	4dd]	1ee	4g
.	4g	.	2gg
.	[2cc	.	.
.	.	.	4ff#
=219	=219	=219	=219
1D_	4cc]	1aa	4ee
.	4dd	.	4dd
.	[2ee	.	4cc
.	.	.	4b
=220	=220	=220	=220
1D]	4ee]	1ff#	4a
.	4a	.	4ccc
.	4dd	.	4bb
.	4cc	.	4aa
=221	=221	=221	=221
4EE-	4b-	4gg	1gg
8E-	8g	8b-	.
8E-	8g	8b-	.
4E-	4g	4b-	.
4E-	4g	4b-	.
=222	=222	=222	=222
4EE-	4b-	4gg	1bb-
8E-	8g	8b-	.
8E-	8g	8b-	.
4E-	4g	4b-	.
4E-	4g	4b-	.
=223	=223	=223	=223
4EE-	4b-	4gg	1eee-
8E-	8g	8b-	.
8E-	8g	8b-	.
4E-	4g	4b-	.
4E-	4g	4b-	.
=224	=224	=224	=224
4EE	4b-	4gg	1ccc#
8E	8g	8b-	.
8E	8g	8b-	.
4E	4g	4b-	.
4E	4g	4b-	.
=225	=225	=225	=225
4F	4d	4a	4ddd
2.r	2.r	2.r	8dd
.	.	.	8dd
.	.	.	4dd
.	.	.	4dd
=226	=226	=226	=226
4F#	4a	4dd	4ccc
2.r	2.r	2.r	8dd
.	.	.	8dd
.	.	.	4dd
.	.	.	4dd
=227	=227	=227	=227
4G	4g	4dd	4bb
2.r	2.r	2.r	8dd
.	.	.	8dd
.	.	.	4dd
.	.	.	4dd
=228	=228	=228	=228
4D#	4a	4cc	4ff#
2.r	2.r	2.r	8cc
.	.	.	8cc
.	.	.	4cc
.	.	.	4cc
=229	=229	=229	=229
4E	4r	4g	4b
2.r	8e	8b	8gg
.	8e	8b	8gg
.	4e	4b	4gg
.	4e	4b	4gg
=230	=230	=230	=230
4C#	4r	4r	4r
2.r	8c#	8b- 8g	8ee
.	8c#	8b- 8g	8ee
.	4c#	4b- 4g	4ee
.	4c#	4b- 4g	4ee
=231	=231	=231	=231
4D	4r	4r	4r
2.r	8d	8b 8g	8dd
.	8d	8b 8g	8dd
.	4d	4b 4g	4dd
.	4d	4b 4g	4dd
=232	=232	=232	=232
4D	4r	4r	4r
2.r	8A	8d 8c	8f#
.	8A	8d 8c	8f#
.	4A	4d 4c	4f#
.	4A	4d 4c	4f#
=233	=233	=233	=233
4GG	4G	4d 4B	4g
2.r	2.r	2.r	8r
.	.	.	8d
.	.	.	8f#
.	.	.	8e
.	.	.	8g
.	.	.	8f#
=234	=234	=234	=234
1r	1r	1r	8a
.	.	.	8g
.	.	.	8b
.	.	.	8a
.	.	.	8cc
.	.	.	8b
.	.	.	8dd
.	.	.	8cc
=235	=235	=235	=235
4GG	4G	4B	2dd
2.r	4G	4B	.
.	4G	4B	4.b
.	4G	4B	.
.	.	.	8gg
=236	=236	=236	=236
4GG	4G	4B	2gg
2.r	4G	4B	.
.	4G	4B	[2dd
.	4G	4B	.
=237	=237	=237	=237
4D	4F#	4A	2dd]
2.r	4F#	4A	.
.	4F#	4A	4cc
.	4F#	4c	4a
=238	=238	=238	=238
4GG	4F#	4c	4.a
2.r	4G	4B	.
.	.	.	8b
.	4B	4d	2g
.	4B	4d	.
=239	=239	=239	=239
4GG	4G	4B	2dd
2.r	4G	4B	.
.	4G	4B	4.b
.	4G	4B	.
.	.	.	8gg
=240	=240	=240	=240
4GG	4G	4B	2gg
2.r	4G	4B	.
.	4G	4B	[2dd
.	4G	4B	.
=241	=241	=241	=241
4D	4F#	4A	2dd]
2.r	4F#	4A	.
.	4F#	4A	4cc
.	4F#	4c	4a
=242	=242	=242	=242
4GG	4G	4B	8g
.	.	.	8dd
2.r	2.r	2.r	8ee
.	.	.	8ff#
.	.	.	8gg
.	.	.	8aa
.	.	.	8bb
.	.	.	8ccc
=243	=243	=243	=243
[1GG	4G	8b	4ddd
.	.	8dd	.
.	4B	8g	4ddd
.	.	8dd	.
.	4d	8b	4bb
.	.	8dd	.
.	4B	8g	4ggg
.	.	8dd	.
=244	=244	=244	=244
1GG]	4G	8b	4ggg
.	.	8dd	.
.	4B	8g	4ggg
.	.	8dd	.
.	4d	8b	[2ddd
.	.	8dd	.
.	4B	8g	.
.	.	8dd	.
=245	=245	=245	=245
1DD	4F#	8cc	4ddd]
.	.	8dd	.
.	4A	8a	4ddd
.	.	8dd	.
.	4d	8cc	4ccc
.	.	8dd	.
.	4F#	8a	4aa
.	.	8dd	.
=246	=246	=246	=246
[1GG	4G	8b	4aa
.	.	8dd	.
.	4B	8g	4bb
.	.	8dd	.
.	4d	8b	2gg
.	.	8dd	.
.	4B	8g	.
.	.	8dd	.
=247	=247	=247	=247
1GG_	4G	8b	8ccc#
.	.	8dd	8ddd
.	4B	8g	8ccc#
.	.	8dd	8ddd
.	4d	8b	4bb
.	.	8dd	.
.	4B	8g	4ggg
.	.	8dd	.
=248	=248	=248	=248
1GG]	4G	8b	8fff#
.	.	8dd	8ggg
.	4B	8g	8fff#
.	.	8dd	8ggg
.	4d	8b	4ddd
.	.	8dd	.
.	4B	8g	4r
.	.	8dd	.
=249	=249	=249	=249
1DD	4F#	8a	8ccc#
.	.	8dd	8ddd
.	4A	8f#	8ccc#
.	.	8dd	8ddd
.	4d	8a	4ccc
.	.	8dd	.
.	4c	8f#	4aa
.	.	8dd	.
=250	=250	=250	=250
4GG	8B	8g	4gg
.	8G	8B	.
8AA	8A	8c	2.r
8BB	8B	8d	.
8C	8c	8e	.
8D	8d	8f#	.
8E	8e	8g	.
8F#	8f#	8a	.
=251	=251	=251	=251
4G	4g	4b	4b
4G	4g	4b	4b
4F#	4d	4a	4dd
4F#	4d	4a	4dd
=252	=252	=252	=252
2.E	2.B	2.g	2.gg
4BB	4d	4g	4g
=253	=253	=253	=253
4D	4d	4g	4a
4D	4d	4g	4a
4D	4d	4f#	4dd
4D	4d	4f#	4dd
=254	=254	=254	=254
4GG	8d	8g	2b
.	8G	8B	.
8AA	8A	8c	.
8BB	8B	8d	.
8C	8c	8e	2r
8D	8d	8f#	.
8E	8e	8g	.
8F#	8f#	8a	.
=255	=255	=255	=255
4G	4g	4b	4b
4G	4g	4b	4b
4F#	4d	4a	4dd
4F#	4d	4a	4dd
=256	=256	=256	=256
2E	2.B	2g	2.gg
2r	.	2r	.
.	8G	.	8e
.	8A	.	8f#
=257	=257	=257	=257
4E	4B	4g	4g
4E	4B	4g	4g
4D	4B	4f#	4b
4D	4B	4f#	4b
=258	=258	=258	=258
2C	2.G	2e	2.ee
2r	.	2r	.
.	8E	.	8c
.	8F#	.	8d
=259	=259	=259	=259
4C	4G	4e	4e
4C	4G	4e	4e
4BB	4G	4d	4g
4BB	4G	4d	4g
=260	=260	=260	=260
4AA	4E	4c	4cc
4r	4r	4r	4r
4GG	4G	4e	4cc
4r	4r	4r	4r
=261	=261	=261	=261
4FF#	4A	4a	4cc
4r	4r	4r	4r
4EE	4A	4g	4cc
4r	4r	4r	4r
=262	=262	=262	=262
2DD	2A	2f#	2.cc
2r	2r	2r	.
.	.	.	4d
=263	=263	=263	=263
1r	1r	1r	4f#
.	.	.	4f#
.	.	.	4a
.	.	.	4a
=264	=264	=264	=264
[1d	[1a [1f#	[1cc	4cc
.	.	.	2r
.	.	.	4dd
=265	=265	=265	=265
1d_	1a_ 1f#_	1cc_	4ff#
.	.	.	4ff#
.	.	.	4aa
.	.	.	4aa
=266	=266	=266	=266
4d]	4a] 4f#]	4cc]	4ccc
2.r	2.r	2r	2.r
.	.	4d	.
=267	=267	=267	=267
1r	1r	4e-	1r
.	.	4e	.
.	.	4f	.
.	.	4f#	.
=268	=268	=268	=268
1r	2.r	[1g	1r
.	4b	.	.
=269	=269	=269	=269
1r	4cc	1g_	1r
.	4cc#	.	.
.	4dd	.	.
.	4dd#	.	.
=270	=270	=270	=270
2.r	[1ee	1g_	1r
4A	.	.	.
=271	=271	=271	=271
4B-	1ee_	1g]	1r
4B	.	.	.
4c	.	.	.
4c#	.	.	.
=272	=272	=272	=272
[1d	1ee]	[1f#	2.r
.	.	.	4aa
=273	=273	=273	=273
2d]	[1dd	1f#]	4bb-
.	.	.	4bb
2c	.	.	4ccc
.	.	.	4ccc#
=274	=274	=274	=274
2.B	2.dd]	[1ff [1g	[1ddd
4G	4B	.	.
=275	=275	=275	=275
4A-	4c	1ff] 1g]	1ddd_
4A	4c#	.	.
4B-	4d	.	.
4B	4d#	.	.
=276	=276	=276	=276
2.c	[1e	2.ee 2.g	2ddd]
.	.	.	[2ccc
4E	.	4g	.
=277	=277	=277	=277
4F	1e_	4g#	2ccc]
4F#	.	4a	.
4G	.	4a#	[2bb
4G#	.	4b	.
=278	=278	=278	=278
2.A	2.e]	2.cc	2bb]
.	.	.	4aa
4D	4a	[4cc	4ff#
=279	=279	=279	=279
4E-	4g	4cc]	4gg
4E	4b-	2cc	4gg#
4F	[2a	.	4aa
4F#	.	[4cc	4ee-
=280	=280	=280	=280
2G	2a]	2cc]	2dd
2E	2g	2b	[2gg
=281	=281	=281	=281
2C	2e	1a	2gg]
2D	4d	.	2ff#
.	4c	.	.
=282	=282	=282	=282
4G	4B	4g	1gg
2.r	2.r	4r	.
.	.	[2g	.
=283	=283	=283	=283
1r	1d	2g]	1bb
.	.	[2b	.
=284	=284	=284	=284
1G	1e	2b]	1eee
.	.	[2ee	.
=285	=285	=285	=285
1A	1a	4ee]	1ccc#
.	.	4cc#	.
.	.	4g	.
.	.	4e	.
=286	=286	=286	=286
1d	1f#	4d	2.ddd
.	.	4f#	.
.	.	4a	.
.	.	[4dd	8dd
.	.	.	8ee
=287	=287	=287	=287
1B	[1g	8dd]	8ff
.	.	8cc	8ee
.	.	8b	8dd
.	.	8a	8cc
.	.	8g	8b
.	.	8f	8a
.	.	8e	8g
.	.	8d	8f
=288	=288	=288	=288
4c	4g]	4c	4e
4r	4r	4r	4r
4A	4a	4cc	4ee
4r	4r	4r	4r
=289	=289	=289	=289
4F#	4a	4cc	4dd
4r	4r	4r	4r
4G	4g	4b	4gg
4r	4r	4r	4r
=290	=290	=290	=290
4C	4e	4g	4a
4r	4r	4r	4r
4D	4d	4cc 4d	4ff# 4a 4d
4r	4r	4r	4r
=291	=291	=291	=291
4GG	4d	4b 4d 4G	4gg 4b 4d
2.r	2.r	2.r	2.r
=292	=292	=292	=292
1r	1r	1r	1g
=293	=293	=293	=293
1r	1r	1r	1b
=294	=294	=294	=294
1C#	[1G	[1B-	1ee
=295	=295	=295	=295
1E	1G_	1B-]	1cc#
=296	=296	=296	=296
1D	1G]	1B	1dd
=297	=297	=297	=297
1DD	1A	1c	1f#
=298	=298	=298	=298
4GG	4G	4B	4g
2.r	2.r	2.r	2.r
==	==	==	==
*-	*-	*-	*-
!!!RWG1: This file contains only pitch and duration data.
!!!RWG2: Transposing instruments are not transposed.
!!!RWG3: Spines may have incompatible meters.
!!!RWG4: Durations of rests and tied notes may be interpreted.
!!!RWG: Key is interpreted using the Humdrum key tool.
!!!AFT: stage1
!!!END: 1997/04/15
!!!KEY: 653740536
!!!EMD: Converted from MuseData to Humdrum Dec 16, 2000, by Andreas Kornstaedt using muse2kern.
!!!EMD: Manual editing by Craig Sapp, Nov 2001
